tools/download-figma-icons/icons/outlined-large/cloud.svg

<svg xmlns="http://www.w3.org/2000/svg" width="64" height="64" fill="none" viewBox="0 0 64 64"><path fill="currentColor" fill-rule="evenodd" d="M11.667 33.5C6.888 33.5 3 37.425 3 42.25S6.888 51 11.667 51h36.6C55.288 51 61 45.235 61 38.15c0-7.086-5.712-12.85-12.733-12.85-1.004 0-2.048.135-3.101.401a1.5 1.5 0 0 1-1.152-.176 1.5 1.5 0 0 1-.679-.947C41.794 17.761 35.879 13 28.95 13c-8.142 0-14.766 6.685-14.766 14.9 0 1.27.175 2.574.523 3.875a1.5 1.5 0 0 1-1.687 1.868c-.487-.079-.923-.143-1.353-.143m36.6 20.5h-36.6C5.233 54 0 48.729 0 42.25c0-6.383 5.08-11.594 11.382-11.746a17.4 17.4 0 0 1-.198-2.604c0-9.87 7.969-17.9 17.766-17.9 7.849 0 14.615 5.067 16.929 12.493a15 15 0 0 1 2.388-.193C56.942 22.3 64 29.41 64 38.15S56.942 54 48.267 54" clip-rule="evenodd"/></svg>

<svg width="64" height="64" viewBox="0 0 64 64" fill="none" xmlns="http://www.w3.org/2000/svg">
<path fill-rule="evenodd" clip-rule="evenodd" d="M11.667 33.5C6.888 33.5 3 37.425 3 42.25C3 47.075 6.888 51 11.667 51H48.267C55.288 51 61 45.235 61 38.15C61 31.064 55.288 25.3 48.267 25.3C47.263 25.3 46.219 25.435 45.166 25.701C44.771 25.801 44.357 25.737 44.014 25.525C43.669 25.314 43.424 24.973 43.335 24.578C41.794 17.761 35.879 13 28.95 13C20.808 13 14.184 19.685 14.184 27.9C14.184 29.17 14.359 30.474 14.707 31.775C14.838 32.267 14.712 32.791 14.371 33.168C14.03 33.545 13.519 33.729 13.02 33.643C12.533 33.564 12.097 33.5 11.667 33.5ZM48.267 54H11.667C5.233 54 0 48.729 0 42.25C0 35.867 5.08 30.656 11.382 30.504C11.25 29.63 11.184 28.76 11.184 27.9C11.184 18.03 19.153 10 28.95 10C36.799 10 43.565 15.067 45.879 22.493C46.685 22.365 47.483 22.3 48.267 22.3C56.942 22.3 64 29.41 64 38.15C64 46.89 56.942 54 48.267 54Z" fill="black"/>
</svg>
